X:990
L:1/8
M:4/4
K:G
 (3DEF | GdBG FG (3AGF | GdBG D2 GF | EGAB cBAG | Fd^cd ed(3=cBA | G2 BG FGAF | GdBG D2 GF | 
 Eedc BAGF | A2 GF G2 :| AG | (3FGA de d2 AG | (3FGA de dfed | ^cdef ge^ce | d3 e d3 c | 
 B2 BA ^GB e2 | A2 AG (3FGA d2 | egfe (3ded (3cBA | G2 FA G2 :|

